packages/core/src/svgs/tokens/mono/KMA.svg

<svg width="24" height="24" viewBox="0 0 24 24" fill="none" xmlns="http://www.w3.org/2000/svg">
<path fill-rule="evenodd" clip-rule="evenodd" d="M4.80671 3.8743C4.71915 6.21949 4.60033 6.96994 4.43147 8.0456C4.35642 8.50832 4.27512 9.03364 4.18131 9.77172C4.18131 13.8867 8.28375 13.8804 9.45959 13.8804H9.52205C10.1412 13.8804 10.4351 14.3432 10.4351 14.8184C10.4351 15.2187 10.185 15.7566 9.71598 15.7566C2.88678 15.7566 2.30518 10.9598 2.30518 9.39013C2.30518 8.86481 2.43025 8.06443 2.55533 7.20133C2.65539 6.60097 2.7492 5.96307 2.81799 5.36271C2.95557 4.37461 2.94306 3.49283 2.94306 3.03004V2.86745C2.94306 2.16077 3.23075 1.96689 3.70603 2.00443C4.30014 2.01693 4.45649 2.01693 4.78794 2.01067L6.00743 2.00443H10.1537C15.9823 2.00443 16.051 7.00121 16.051 9.81549C16.051 10.3907 15.7008 10.7348 15.1255 10.7348C14.1999 10.7348 14.1875 9.64652 14.1875 8.72108C14.1875 4.43089 12.0986 3.96811 9.64083 3.8743H4.80671ZM12.9366 9.19007C12.9366 8.6773 12.5114 8.25194 11.9986 8.25194C11.4857 8.25194 11.0605 8.6773 11.0605 9.19007C11.0605 9.70284 11.4857 10.1281 11.9986 10.1281C12.5114 10.1281 12.9366 9.70284 12.9366 9.19007ZM8.87167 10.7535C9.38444 10.7535 9.80981 11.1787 9.80981 11.6916C9.80981 12.2044 9.38444 12.6296 8.87167 12.6296C8.62288 12.6296 8.38429 12.5308 8.20831 12.3548C8.03243 12.179 7.9336 11.9404 7.9336 11.6916C7.9336 11.1787 8.3589 10.7535 8.87167 10.7535ZM19.8158 7.00121C20.264 7.00058 20.6975 7.16038 21.0381 7.4517C21.3787 7.74302 21.6037 8.14658 21.6724 8.58946C21.7411 9.03233 21.6492 9.48513 21.413 9.86598C21.1769 10.2468 20.8122 10.5307 20.3849 10.6659C20.1786 11.8292 19.253 15.1125 15.4319 15.1311C15.1214 15.1325 14.8107 15.1325 14.5 15.1311C14.5 15.1311 14.5939 20.103 9.71598 20.7096C9.57692 21.1326 9.29193 21.4923 8.91209 21.7246C8.53211 21.9568 8.08199 22.0464 7.6421 21.9772C7.20224 21.9081 6.8013 21.6847 6.51099 21.347C6.22068 21.0093 6.05993 20.5794 6.05746 20.1342C6.08873 19.0836 6.91423 18.2581 7.9336 18.2581C8.59646 18.2581 9.18438 18.6083 9.52205 19.1336C10.11 19.0461 12.9366 18.4018 12.9366 14.0993V13.8053C12.9555 13.3675 13.2368 13.255 13.4994 13.255C13.6997 13.255 13.8934 13.3176 13.9435 13.3426C13.9435 13.3426 17.6708 14.8435 18.8402 10.4783C18.4914 10.2652 18.2218 9.9439 18.0722 9.56349C17.9228 9.18307 17.9016 8.76412 18.0119 8.37057C18.1224 7.97687 18.3584 7.63018 18.6841 7.383C19.0096 7.13584 19.4071 7.00176 19.8158 7.00121ZM19.8158 8.25194C19.9817 8.25194 20.1408 8.31789 20.258 8.43522C20.3753 8.55239 20.4413 8.71145 20.4413 8.87736C20.4413 9.04327 20.3753 9.20233 20.258 9.3195C20.1408 9.43683 19.9817 9.50278 19.8158 9.50278C19.6499 9.50278 19.4909 9.43683 19.3737 9.3195C19.2564 9.20233 19.1904 9.04327 19.1904 8.87736C19.1904 8.71145 19.2564 8.55239 19.3737 8.43522C19.4909 8.31789 19.6499 8.25194 19.8158 8.25194ZM8.55896 20.1342C8.55896 19.9683 8.49315 19.8093 8.37583 19.6919C8.25851 19.5748 8.09947 19.5088 7.9336 19.5088C7.58964 19.5088 7.33949 19.7589 7.30822 20.1342C7.30822 20.3 7.3741 20.4592 7.4914 20.5764C7.60867 20.6937 7.76774 20.7597 7.9336 20.7597C8.09947 20.7597 8.25851 20.6937 8.37583 20.5764C8.49315 20.4592 8.55896 20.3 8.55896 20.1342Z" fill="white"/>
</svg>

<svg xmlns="http://www.w3.org/2000/svg" width="24" height="24" fill="none" viewBox="0 0 24 24">
    <path fill="#fff" fill-rule="evenodd" d="M4.807 3.874C4.719 6.22 4.6 6.97 4.43 8.046c-.075.462-.156.988-.25 1.726 0 4.115 4.103 4.108 5.279 4.108h.062c.62 0 .913.463.913.938 0 .4-.25.939-.719.939-6.83 0-7.41-4.797-7.41-6.367 0-.525.124-1.326.25-2.189.1-.6.193-1.238.262-1.838.138-.988.125-1.87.125-2.333v-.163c0-.706.288-.9.763-.863.594.013.75.013 1.082.007l1.22-.007h4.146c5.828 0 5.897 4.997 5.897 7.811 0 .576-.35.92-.925.92-.926 0-.938-1.088-.938-2.014 0-4.29-2.09-4.753-4.547-4.847zm8.13 5.316a.945.945 0 0 0-.938-.938.945.945 0 0 0-.939.938c0 .513.426.938.939.938a.945.945 0 0 0 .938-.938m-4.065 1.564c.512 0 .938.425.938.938a.945.945 0 0 1-.938.938.94.94 0 0 1-.938-.938c0-.513.425-.938.938-.938M19.816 7a1.876 1.876 0 0 1 .569 3.665c-.206 1.163-1.132 4.447-4.953 4.465q-.465.003-.932 0s.094 4.972-4.784 5.579a1.877 1.877 0 0 1-3.659-.576c.032-1.05.857-1.876 1.877-1.876.662 0 1.25.35 1.588.876.588-.088 3.415-.732 3.415-5.035v-.294c.019-.437.3-.55.562-.55.2 0 .394.063.444.088 0 0 3.728 1.5 4.897-2.865A1.877 1.877 0 0 1 19.816 7m0 1.25a.625.625 0 1 1 0 1.251.625.625 0 0 1 0-1.25M8.559 20.135a.626.626 0 0 0-.625-.625c-.344 0-.595.25-.626.625a.625.625 0 1 0 1.251 0" clip-rule="evenodd"/>
</svg>
